X:1
T:The Joy Awaiting
T:The Joy Awaiting
T:Robert Harkness
T:Maud Fraser Jackson, 1909
T:Public Domain Courtesy of the Cyber Hymnal™
C:Robert Harkness
Z:Public Domain
Z:Courtesy of the Cyber Hymnal™
%%score ( 1 2 ) ( 3 4 )
L:1/8
Q:1/4=105
M:4/4
K:A
V:1 treble 
V:2 treble 
V:3 bass 
V:4 bass 
V:1
 [CA][CA] | [CG]2 [CF]2 [CE]2 [CF]2 | [DG]2 [DG]4 [DB][CA] | [DG]2 [DB]2 [DF]2 [DG]2 | %4
w: 1.~Sat- is-|fied my high- est|long- ing, Earth- ly|griefs as naught shall|
w: 2.~Hu- man|mind can- not con-|ceive it, My Re-|deem- er’s face so|
w: 3.~Tho’ oft-|times the way He|lead- eth, Is a|way of mys- ter-|
w: 4.~Here my|tongue can ne- ver|ut- ter All the|praise with- in my|
 [CE]6 [CA][CA] | [CG]2 [CF]2 [CE]2 [CF]2 | [DG]2 [DG]4 [B,E][EG] | B4 B4 | B6 || %9
w: be, When I|wake with Christ in|glo- ry, When His|face I|see.|
w: fair; But I|know they need no|sun- shine, But His|smile up|there.|
w: y; There shall|be no more of|dark- ness When His|face I|see.|
w: heart; There, in|Hea- ven’s song of|tri- umph, I shall|have a|part.|
"^Refrain" [CE][EA] | x8 | [Ec]4 [DB]4 | [CA]6 [EA][Ac] | e4 d4 | [Ac]6 [EA][EA] | %15
w: ||||||
w: ||||||
w: ||||||
w: ||||||
 [Fd]2 [Ad]2 [Gc]2 [FA]2 | [Ae]2 [Ec]2 [EA]2 [Fd]2 | [Ec]4 [DB]4 | [CA]6 |] %19
w: ||||
w: ||||
w: ||||
w: ||||
V:2
 x2 | x8 | x8 | x8 | x8 | x8 | x8 | (E2 ^D2) (C2 D2) | (E4 D2) || x2 | x8 | x8 | x8 | %13
 (A2 G2) (F2 G2) | x8 | x8 | x8 | x8 | x6 |] %19
V:3
 [A,,E,][A,,E,] | [A,,E,]2 [A,,A,]2 [A,,A,]2 [A,,F,]2 | [B,,E,]2 [B,,E,]4 [E,G,][E,A,] | %3
w: ~ ~|~ ~ ~ ~|~ ~ ~ ~|
 [E,B,]2 [E,G,]2 [E,A,]2 [E,B,]2 | [A,,A,]6 [A,,E,][A,,E,] | [A,,E,]2 [A,,A,]2 [A,,A,]2 [C,^A,]2 | %6
w: ~ ~ ~ ~|~ ~ ~|~ ~ ~ ~|
 [E,B,]2 [E,B,]4 [E,G,][E,B,] | (G,2 F,2) (E,2 F,2) | [E,G,]6 || [A,,A,][C,A,] | [E,A,]4 [E,G,]4 | %11
w: ~ ~ ~ ~|~ * ~ *|~|When His|face I|
 [A,,A,]6 [A,C][A,E] | (C2 B,2) (A,2 B,2) | [A,E]6 [=G,C][G,C] | [F,D]2 [F,D]2 [E,E]2 [E,D]2 | %15
w: see, When His|face * I *|see, Oh, the|joy for me a-|
 [A,C]2 A,2 [F,C]2 [D,A,]2 | [E,A,]4 [E,G,]4 | [A,,A,]6 x2 | x6 |] %19
w: wait- ing, When His|face I|see.||
V:4
 x2 | x8 | x8 | x8 | x8 | x8 | x8 | B,,4 B,,4 | x6 || x2 | x8 | x8 | E,4 E,4 | x8 | x8 | %15
 x2 A,2 x4 | x8 | x8 | x6 |] %19

